static/assets/images/icons/stars.svg

<svg width="256" height="256" viewBox="0 0 256 256" fill="none" xmlns="http://www.w3.org/2000/svg">
<path d="M221.997 167.897C222.046 170.01 221.402 172.08 220.163 173.791C218.941 175.535 217.176 176.826 215.144 177.462L198.638 182.969C193.554 184.659 188.929 187.503 185.124 191.278C181.324 195.063 178.478 199.7 176.823 204.804L171.031 221.228C170.428 223.2 169.21 224.926 167.556 226.156C165.791 227.355 163.705 227.995 161.572 227.991C159.43 228.083 157.319 227.458 155.571 226.216C153.823 224.974 152.538 223.185 151.919 221.132L146.417 204.611C144.761 199.507 141.916 194.87 138.115 191.085C134.28 187.327 129.666 184.458 124.602 182.679L108.096 177.269C106.141 176.583 104.43 175.341 103.173 173.694C101.905 171.95 101.198 169.86 101.146 167.704C101.054 165.561 101.678 163.448 102.919 161.698C104.16 159.949 105.947 158.663 107.999 158.043L124.602 152.536C129.751 150.87 134.431 148.005 138.257 144.175C142.083 140.346 144.946 135.661 146.61 130.508L152.112 114.18C152.675 112.171 153.872 110.398 155.525 109.127C157.178 107.855 159.198 107.154 161.282 107.127C163.357 107.127 165.394 107.697 167.17 108.769C168.927 109.977 170.278 111.697 171.031 113.697L176.63 130.508C178.294 135.661 181.156 140.346 184.983 144.175C188.809 148.005 193.489 150.87 198.638 152.536L215.047 158.332C217.044 158.987 218.772 160.276 219.97 162.004C221.278 163.69 221.991 165.763 221.997 167.897ZM125.48 106.451C125.465 108.345 124.895 110.193 123.839 111.765C122.698 113.32 121.118 114.498 119.302 115.146L107.14 119.204C103.733 120.382 100.644 122.295 98.0664 124.807C95.5471 127.379 93.6342 130.482 92.4679 133.889L88.3172 145.869C87.7287 147.718 86.5395 149.316 84.9387 150.41C83.3518 151.519 81.4685 152.125 79.5332 152.149C77.5546 152.116 75.6339 151.475 74.0312 150.314C72.513 149.158 71.371 147.578 70.7493 145.773L66.7917 133.696C65.6304 130.315 63.7159 127.242 61.1931 124.711C58.721 122.115 55.6328 120.187 52.2161 119.107L40.1502 115.049C38.278 114.46 36.6505 113.272 35.5169 111.668C34.7486 110.463 34.2568 109.103 34.0769 107.686C33.897 106.268 34.0336 104.828 34.4768 103.47C34.92 102.111 35.6587 100.868 36.6398 99.8299C37.6208 98.7916 38.8198 97.9842 40.1502 97.4656L52.2161 93.5045C55.6302 92.3113 58.7314 90.3624 61.2884 87.803C63.8455 85.2436 65.7926 82.1397 66.9847 78.7225L70.9423 66.839C71.5113 65.0581 72.5843 63.4807 74.0312 62.2981C75.5687 61.1385 77.4176 60.4656 79.3402 60.3658C81.288 60.3135 83.2061 60.8524 84.8422 61.9117C86.4524 62.9996 87.6972 64.5485 88.4137 66.3559L92.4679 78.7225C93.6599 82.1397 95.6071 85.2436 98.1641 87.803C100.721 90.3624 103.822 92.3113 107.236 93.5045L119.302 97.6589C121.107 98.2793 122.664 99.465 123.743 101.04C124.885 102.611 125.494 104.508 125.48 106.451ZM181.36 54.6656C181.272 56.4272 180.705 58.1312 179.719 59.5929C178.714 60.9707 177.292 61.9872 175.664 62.4914L169.68 64.5203C168.517 64.9218 167.461 65.5828 166.592 66.4532C165.722 67.3236 165.062 68.3806 164.66 69.5442L162.537 75.6309C161.954 77.113 160.988 78.4134 159.738 79.3988C158.314 80.5399 156.541 81.1542 154.718 81.1379C153.049 81.0342 151.429 80.5377 149.988 79.6887C148.545 78.6245 147.466 77.1397 146.899 75.4376L144.872 69.4476C144.524 68.2596 143.856 67.1902 142.942 66.3559C142.091 65.4622 141.028 64.7976 139.853 64.4236L133.868 62.4914C132.276 61.8699 130.877 60.8363 129.814 59.4963C128.813 58.0483 128.274 56.3301 128.27 54.569C128.326 52.8017 128.896 51.0892 129.911 49.6417C130.95 48.3001 132.36 47.2925 133.965 46.7433L139.853 44.811C141.042 44.405 142.129 43.7457 143.038 42.8787C143.905 41.9682 144.563 40.8804 144.969 39.6904L146.996 33.7004C147.575 32.2029 148.492 30.8792 149.699 29.8358C151.084 28.8128 152.717 28.179 154.429 28.0001C156.25 27.9897 158.033 28.5284 159.544 29.546C160.905 30.5706 161.971 31.9372 162.633 33.5071L164.66 39.6904C165.066 40.8804 165.725 41.9682 166.591 42.8787C167.489 43.7132 168.537 44.3689 169.68 44.811L175.761 46.8399C177.307 47.4489 178.671 48.4473 179.719 49.7383C180.772 51.1662 181.346 52.891 181.36 54.6656Z" fill="black"/>
</svg>

<svg xmlns="http://www.w3.org/2000/svg" fill="none" viewBox="0 0 256 256"><path fill="#000" d="M221.997 167.897a9.67 9.67 0 0 1-1.834 5.894 9.65 9.65 0 0 1-5.019 3.671l-16.506 5.507a34.76 34.76 0 0 0-13.514 8.309 33.8 33.8 0 0 0-8.301 13.526l-5.792 16.424a9.66 9.66 0 0 1-3.475 4.928 10.6 10.6 0 0 1-5.984 1.835 9.66 9.66 0 0 1-9.653-6.859l-5.502-16.521a33.8 33.8 0 0 0-8.302-13.526 36.7 36.7 0 0 0-13.513-8.406l-16.506-5.41a10.6 10.6 0 0 1-4.923-3.575 10.6 10.6 0 0 1-2.027-5.99 9.67 9.67 0 0 1 1.773-6.006 9.65 9.65 0 0 1 5.08-3.655l16.603-5.507a34.2 34.2 0 0 0 13.655-8.361 34.2 34.2 0 0 0 8.353-13.667l5.502-16.328a9.66 9.66 0 0 1 3.413-5.053 9.64 9.64 0 0 1 5.757-2 11.4 11.4 0 0 1 5.888 1.642 10.46 10.46 0 0 1 3.861 4.928l5.599 16.811a34.2 34.2 0 0 0 22.008 22.028l16.409 5.796a9.65 9.65 0 0 1 4.923 3.672 9.66 9.66 0 0 1 2.027 5.893m-96.517-61.446a9.67 9.67 0 0 1-1.641 5.314 9.65 9.65 0 0 1-4.537 3.381l-12.162 4.058a24.4 24.4 0 0 0-9.074 5.603 24.2 24.2 0 0 0-5.598 9.082l-4.15 11.98a8.7 8.7 0 0 1-3.38 4.541 9.65 9.65 0 0 1-5.405 1.739 9.65 9.65 0 0 1-5.502-1.835 9.66 9.66 0 0 1-3.282-4.541l-3.957-12.077a23.6 23.6 0 0 0-5.599-8.985 21.2 21.2 0 0 0-8.977-5.604l-12.066-4.058a8.97 8.97 0 0 1-4.633-3.381 9.67 9.67 0 0 1-1.04-8.198 9.66 9.66 0 0 1 5.673-6.004l12.066-3.962a24 24 0 0 0 9.072-5.701 24.06 24.06 0 0 0 5.697-9.08l3.957-11.884a9.66 9.66 0 0 1 3.09-4.54 9.65 9.65 0 0 1 5.308-1.933 9.65 9.65 0 0 1 5.502 1.546 9.66 9.66 0 0 1 3.572 4.444l4.054 12.367a24.06 24.06 0 0 0 5.696 9.08 24 24 0 0 0 9.072 5.701l12.066 4.155a8.9 8.9 0 0 1 4.441 3.381 9.1 9.1 0 0 1 1.737 5.411m55.88-51.785a9.7 9.7 0 0 1-1.641 4.927 7.92 7.92 0 0 1-4.055 2.898l-5.984 2.03a8.12 8.12 0 0 0-5.02 5.024l-2.123 6.086a9 9 0 0 1-2.799 3.768 7.9 7.9 0 0 1-5.02 1.739 10.6 10.6 0 0 1-4.73-1.45 8.7 8.7 0 0 1-3.089-4.25l-2.027-5.99a6.76 6.76 0 0 0-1.93-3.092 7.34 7.34 0 0 0-3.089-1.932l-5.985-1.933a9.66 9.66 0 0 1-4.054-2.995 8.7 8.7 0 0 1-1.544-4.927 9.1 9.1 0 0 1 1.641-4.927 8.7 8.7 0 0 1 4.054-2.899l5.888-1.932a8.7 8.7 0 0 0 3.185-1.932 8.7 8.7 0 0 0 1.931-3.189l2.027-5.99a9.7 9.7 0 0 1 2.703-3.864 9.65 9.65 0 0 1 4.73-1.836 9.07 9.07 0 0 1 5.115 1.546 9.65 9.65 0 0 1 3.089 3.961l2.027 6.183a8.7 8.7 0 0 0 1.931 3.189 9.7 9.7 0 0 0 3.089 1.932l6.081 2.029a9.66 9.66 0 0 1 3.958 2.898 8.4 8.4 0 0 1 1.641 4.928"/></svg>
